src/helpers/heroicons/outline/academic-cap.svg

<svg width="24" height="24" viewBox="0 0 24 24" fill="none" xmlns="http://www.w3.org/2000/svg">
<path d="M4.25933 10.1468C3.98688 12.2308 3.82139 14.3485 3.76853 16.4941C6.66451 17.7032 9.41893 19.1836 12 20.9037C14.5811 19.1836 17.3355 17.7032 20.2315 16.4941C20.1786 14.3485 20.0131 12.2308 19.7407 10.1468M4.25933 10.1468C3.38362 9.85242 2.49729 9.5812 1.60107 9.33382C4.84646 7.05899 8.32741 5.09732 12 3.49268C15.6727 5.09732 19.1536 7.059 22.399 9.33383C21.5028 9.58122 20.6164 9.85245 19.7407 10.1468M4.25933 10.1468C6.94656 11.05 9.5338 12.171 12.0001 13.4888C14.4663 12.171 17.0535 11.0501 19.7407 10.1468M6.75 15.0001C7.16421 15.0001 7.5 14.6643 7.5 14.2501C7.5 13.8359 7.16421 13.5001 6.75 13.5001C6.33579 13.5001 6 13.8359 6 14.2501C6 14.6643 6.33579 15.0001 6.75 15.0001ZM6.75 15.0001V11.3246C8.44147 10.2736 10.1936 9.31107 12 8.44342M4.99264 19.9928C6.16421 18.8212 6.75 17.2857 6.75 15.7501V14.2501"  stroke-width="1.5" stroke-linecap="round" stroke-linejoin="round"/>
</svg>

<svg xmlns="http://www.w3.org/2000/svg" fill="none" viewBox="0 0 24 24" stroke-width="1.5" stroke="currentColor" aria-hidden="true" data-slot="icon">
  <path stroke-linecap="round" stroke-linejoin="round" d="M4.26 10.147a60.438 60.438 0 0 0-.491 6.347A48.62 48.62 0 0 1 12 20.904a48.62 48.62 0 0 1 8.232-4.41 60.46 60.46 0 0 0-.491-6.347m-15.482 0a50.636 50.636 0 0 0-2.658-.813A59.906 59.906 0 0 1 12 3.493a59.903 59.903 0 0 1 10.399 5.84c-.896.248-1.783.52-2.658.814m-15.482 0A50.717 50.717 0 0 1 12 13.489a50.702 50.702 0 0 1 7.74-3.342M6.75 15a.75.75 0 1 0 0-1.5.75.75 0 0 0 0 1.5Zm0 0v-3.675A55.378 55.378 0 0 1 12 8.443m-7.007 11.55A5.981 5.981 0 0 0 6.75 15.75v-1.5"/>
</svg>
